packages/icons/src/components/Icon/assets/small-outline/video.svg

<svg width="16" height="16" viewBox="0 0 16 16" fill="none" xmlns="http://www.w3.org/2000/svg">
<path d="M10.7341 7.60521V8.39397L12.6154 10.0283V5.97089L10.7341 7.60521ZM14 10.6899C14 11.2137 13.6299 11.5465 13.2897 11.6689C12.9486 11.7915 12.5021 11.7636 12.1566 11.4634L10.7278 10.2221C10.6729 11.2271 9.75167 11.8843 8.81671 11.8844H3.91737C2.95332 11.8844 2 11.1857 2 10.1274V5.87173C2.00014 4.81357 2.95339 4.11572 3.91737 4.11572H8.81671L8.997 4.12384C9.86675 4.20178 10.6758 4.83662 10.7278 5.77618L12.1566 4.53579L12.2909 4.43573C12.6124 4.23115 12.9914 4.22308 13.2897 4.33027C13.6298 4.45264 13.9998 4.78563 14 5.30923V10.6899ZM3.38462 10.1274C3.38462 10.1957 3.41518 10.2789 3.50541 10.3573C3.59705 10.4368 3.74062 10.4997 3.91737 10.4997H8.81671C8.99352 10.4997 9.13706 10.4369 9.22867 10.3573C9.31889 10.2789 9.34946 10.1957 9.34946 10.1274V5.87173C9.34939 5.80349 9.3188 5.72015 9.22867 5.64186C9.15999 5.58229 9.062 5.53243 8.94291 5.51116L8.81671 5.50034H3.91737C3.74076 5.50034 3.59706 5.56245 3.50541 5.64186C3.41528 5.72015 3.38468 5.80349 3.38462 5.87173V10.1274Z" fill="#727683"/>
</svg>

<svg xmlns="http://www.w3.org/2000/svg" width="16" height="16" fill="none" viewBox="0 0 16 16">
    <path fill="#727683" d="M10.734 7.605v.789l1.881 1.634V5.971zM14 10.69c0 .524-.37.857-.71.979a1.14 1.14 0 0 1-1.133-.206l-1.43-1.24c-.054 1.004-.975 1.661-1.91 1.661h-4.9c-.964 0-1.917-.698-1.917-1.757V5.872c0-1.058.953-1.756 1.917-1.756h4.9l.18.008c.87.078 1.679.713 1.73 1.652l1.43-1.24.134-.1c.321-.205.7-.213.999-.106.34.123.71.456.71.98zm-10.615-.563c0 .069.03.152.12.23a.63.63 0 0 0 .412.143h4.9c.177 0 .32-.063.412-.143.09-.078.12-.161.12-.23V5.872c0-.069-.03-.152-.12-.23a.6.6 0 0 0-.286-.13L8.817 5.5h-4.9a.63.63 0 0 0-.412.142c-.09.078-.12.161-.12.23z"/>
</svg>
